assets/img/sponsors/storyblok.svg

<svg height="53" viewBox="0 0 251 53" width="251" xmlns="http://www.w3.org/2000/svg"><g fill="none"><path d="m72.9131069 37.088562c-1.830018 0-3.6077497-.2618565-5.3854815-.8379406-1.668257-.5414509-3.2014763-1.4343074-4.4966156-2.6185645l2.3528803-3.9802178c1.3071557.8903117 2.5620251 1.5711385 3.8168946 2.0948515 1.2025833.5237127 2.4051665.7331979 3.5554635.7331979.8365797 0 1.5163006-.1571138 1.9868767-.4713417.470576-.2618562.679721-.7331979.679721-1.309282 0-.523713-.2614312-1.0474257-.8888659-1.3616536-.9826681-.4717195-2.0183968-.8233851-3.0848875-1.0474257l-3.660036-1.2045396c-.9934383-.4189703-1.7777317-.8379406-2.4051664-1.3092822-.6274348-.4189704-1.0980108-.9950545-1.359442-1.5711387-.2845857-.6611663-.4271026-1.37491-.4182898-2.0948515-.0306075-2.0614667.8730502-4.0257866 2.4574527-5.3418714.7320072-.6284555 1.6731593-1.0997971 2.7188839-1.4663961 1.0457245-.366599 2.1960216-.5237129 3.3986048-.5237129 1.6208731 0 3.1371737.2094852 4.5489018.6284555 1.4117282.4713416 2.7711701 1.2569109 4.0783259 2.4090793l-2.5620252 3.9278466c-1.0120787-.7252798-2.0988707-1.3397895-3.2417462-1.8329951-.9934383-.4189703-1.8823042-.5760842-2.8234563-.5760842-.679721 0-1.3071557.1047426-1.7777317.4189703-.5228623.2618565-.7320072.7331981-.7320072 1.3616535 0 .6284555.2614311 1.0474258.7842934 1.3616535s1.5685868.6284555 2.980315.9950545c1.3106573.330664 2.6023076.732776 3.8691809 1.2045396 1.0457245.4189703 1.8823042.8903119 2.5620252 1.3616535 1.2854303.948133 1.9959321 2.4900579 1.8823042 4.0849604 0 2.1472228-.7842935 3.823104-2.4051665 5.0800149-1.5685869 1.2569111-3.660036 1.8853666-6.4312061 1.8853666zm25.8816829-1.5187674c-.8888658.366599-1.9345903.7331979-3.0848873 1.0474258-1.1502971.3142276-2.3005941.5237127-3.5031775.5237127-.8365796 0-1.5685868-.1047424-2.300594-.3142276-.7117047-.2078242-1.371152-.5648622-1.9345903-1.0474257-.5228624-.4189703-.9411522-1.0474258-1.2548696-1.7282526-.3137173-.7331981-.5228623-1.6235098-.5228623-2.6709358v-11.2598269h-2.7188837v-4.9229011h2.77117v-6.86063871h6.4834923v6.80826741h4.3920431v4.9752724h-4.3920431v9.0078616c0 .6808268.1568587 1.2045395.5228622 1.5711387.3660036.2618563.8365796.4189703 1.359442.4189703s1.0457245-.0523713 1.5163005-.2618565c.5228624-.1571138.9934384-.3142278 1.359442-.523713l1.2548696 5.237129zm12.2349772 1.5187674c-1.663775.0290947-3.316712-.2735467-4.862619-.890312-2.720923-1.0781188-4.851972-3.2698089-5.856057-6.0226982-1.0272539-2.7344616-1.0272539-5.749687 0-8.4841486 1.004085-2.7528892 3.135134-4.9445793 5.856057-6.0226982 1.411728-.5760841 3.032601-.8903119 4.862619-.8903119 3.182838-.1500642 6.273786 1.0921486 8.470369 3.4041338.993439.9950544 1.725446 2.1995941 2.248308 3.5088763 1.070304 2.7445333 1.070304 5.7919865 0 8.53652-1.01047 2.7189338-3.11716 4.8860806-5.803771 5.9703268-1.562191.6236407-3.233594.9264074-4.914906.890312zm-4.70576-11.1027132c0 1.6758812.418289 3.0375348 1.307155 4.0325892.941153 1.0474258 2.09145 1.5711385 3.450891 1.5711385 1.313343.0254158 2.565843-.5536017 3.398605-1.5711385.41829-.523713.732007-1.0474257.993439-1.7806239.261431-.6808267.366003-1.466396.366003-2.2519653 0-1.7282525-.470576-3.089906-1.359442-4.0849605-.888866-1.0474257-2.039163-1.5711614-3.398605-1.5711614-1.308546-.0029441-2.551899.5718445-3.398604 1.5711614-.41829.5237129-.784294 1.0474258-1.045725 1.7806238-.235746.7444051-.341866 1.5238874-.313717 2.3043367zm33.097182-5.1847575c-1.568587 0-3.032601.2618564-4.339757.7855693-1.150711.388622-2.13049 1.1663134-2.77117 2.1995941v12.9357081h-6.535778v-21.5245994h6.012916v4.2944457c.732007-1.4663961 1.673159-2.6185644 2.875742-3.4041338 1.150297-.8379406 2.352881-1.2569109 3.660036-1.3092822h.679721l.41829.0523713v5.9179556zm2.875743 19.1155201c.909288.3166112 1.861275.4931919 2.823456.523713.784293 0 1.411728-.2618565 1.882304-.7855695.41829-.5237127.784294-1.5711385 1.150297-2.9327921l-8.156651-21.5245994h6.744923l4.967192 15.8685004 4.339757-15.8685004h6.117488l-8.208938 24.9811045c-1.287643 4.2430365-5.604515 6.7918589-9.934383 5.8655842-.522862-.1047425-1.150297-.2618563-1.725445-.5237128zm35.34549-2.8277346c-1.620873 0-3.084887-.3145426-4.287471-1.0477408-1.221834-.6722497-2.234966-1.6689094-2.928029-2.8804207v3.5612475h-5.699199v-29.95637675h6.588065v11.94065375c1.430165-2.5067144 4.125286-4.0176316 7.006355-3.9278467 1.359442 0 2.614311.2618565 3.764608.8903119 1.150297.5237129 2.09145 1.3616535 2.980315 2.356708 2.573782 3.5775766 3.274119 8.176142 1.882305 12.359624-.522863 1.3616536-1.25487 2.5661931-2.143736 3.5612475-1.83587 2.0160281-4.438998 3.1579388-7.163213 3.1425923zm-1.830018-5.499278c2.122416.0044567 4.013186-1.3422778 4.70576-3.3517847.766676-2.1097322.391002-4.4664649-.993438-6.2321832-.817411-1.078175-2.09951-1.7008098-3.450891-1.6758812-.993438 0-1.93459.366599-2.823456 1.0474258-.83658.733198-1.516301 1.6235099-1.986877 2.7233069v4.5039309c.843797 1.7818523 2.632288 2.9218348 4.601188 2.9327921zm15.058434-24.82401275h6.535778v22.25779755c0 1.6758812.679721 2.4614505 2.091449 2.4614505.746411.0021764 1.482145-.1775627 2.143736-.523713l.888865 4.8705298c-1.831258.8033448-3.804748 1.2307395-5.803771 1.2569111-1.882304 0-3.346319-.523713-4.339757-1.4663963-1.045724-1.0474257-1.568587-2.4090791-1.568587-4.2944454v-24.56213425zm23.999378 30.32297595c-1.663775.0290947-3.316712-.2735467-4.862619-.890312-2.737001-1.0714791-4.886783-3.2628697-5.908344-6.0226982-1.511977-4.1161516-.670789-8.7301502 2.196022-12.0453962 1.045725-1.0474258 2.196022-1.8329951 3.660036-2.4614506 1.411728-.5760841 3.032601-.8903119 4.862619-.8903119 3.182838-.1500642 6.273786 1.0921486 8.470369 3.4041338 1.045725.9950544 1.725446 2.1995941 2.248308 3.5088763 1.571667 4.1108007.724739 8.7562865-2.196022 12.0453962-.993438 1.0474257-2.196021 1.8853663-3.660036 2.4614506-1.545906.6167653-3.198844.9194067-4.862619.890312zm-4.758046-11.1027132c0 1.6758812.418289 3.0375348 1.307155 4.0325892.941152 1.0474258 2.091449 1.5711385 3.450891 1.5711385 1.31172.0177129 2.561044-.5598363 3.398605-1.5711385.41829-.523713.732007-1.0474257.993438-1.7806239.261432-.6808267.366004-1.466396.366004-2.2519653 0-1.7282525-.470576-3.089906-1.359442-4.0849605-.888866-1.0474257-2.039163-1.5711614-3.398605-1.5711614-1.308547-.0029441-2.551899.5718445-3.398605 1.5711614-.418289.5237129-.784293 1.0474258-1.045724 1.7806238-.261431.7331981-.313717 1.4663961-.313717 2.3043367zm33.933762 10.736114-5.594627-8.6936338-2.300594 2.4090793v6.2845545h-6.535778v-29.95637675h6.535778v17.33489635l7.267786-8.903119h6.954068l-7.738361 9.269718 8.365796 12.2548814z" fill="#1b243f"/><path d="m2.32662261 0c-1.29256812 0-2.32662261 1.0331384-2.32662261 2.27290448v40.60233922c0 1.239766 1.03405449 2.0146198 2.27491989 2.0146198h5.99751607v8.1101365l7.44519234-8.0584795h27.1956332c1.2408654 0 2.0164063-.7748538 2.0164063-2.0662768v-40.5506823c0-1.23976608-.7238382-2.3245614-2.0164063-2.3245614z" fill="#0ab3af"/><path d="m29.1016723 8.11483254c1.0334336 0 1.9118522.2064935 2.738599.67110389.7750752.41298701 1.4984787.98084416 2.0668672 1.65194807 1.157623 1.4103546 1.7797863 3.1836908 1.756837 5.0074675 0 1.3422078-.3617017 2.6327922-1.0334335 3.8717533-.6964172 1.2461943-1.7867273 2.2265561-3.1003008 2.7876623 1.6534938.4646104 2.9452857 1.2905844 3.9270476 2.4779221.9300902 1.238961 1.3951353 2.8392857 1.3951353 4.8525974 0 1.2905844-.2355416 2.4404127-.7234035 3.3038961-.5167167.9292208-1.2917919 1.7035714-2.2218821 2.2714286-.9817619.6194805-2.0668672 1.1873376-3.3069875 1.4454545-1.2401203.3097403-2.5835839.5678571-3.9787192.5678571h-18.29177429v-28.90909086zm-2.9675908 16.15701846h-10.3559515v4.8833518h10.1070104c.5974587 0 1.1451292-.2441676 1.5932233-.6348357.3983058-.3906682.647247-.9766704.647247-1.7091731.0144403-.6284528-.1775697-1.2447995-.5476706-1.7580067-.3983058-.4883351-.8463998-.7813363-1.4438586-.7813363zm-.8463999-9.7667035h-9.5095516v4.3950166h9.3103987c.4978823 0 .9957646-.2441676 1.3940704-.5371687.4480941-.2930011.647247-.9278368.647247-1.7580066 0-.7325028-.1991529-1.2696715-.5476705-1.6115061-.3485176-.2930011-.7966117-.4883352-1.294494-.4883352z" fill="#fff"/></g></svg>

<?xml version="1.0" encoding="UTF-8"?>
<svg width="251px" height="53px" viewBox="0 0 251 53" version="1.1" xmlns="http://www.w3.org/2000/svg" xmlns:xlink="http://www.w3.org/1999/xlink">
    <title>sb-logo-full-color</title>
    <g id="storyblok-logo-kit" stroke="none" stroke-width="1" fill="none" fill-rule="evenodd">
        <g id="storyblok-partner-logo" transform="translate(-50.000000, -101.000000)" fill-rule="nonzero">
            <g id="sb-partner-logo" transform="translate(50.000000, 101.000000)">
                <path d="M72.9131069,37.088562 C71.0830889,37.088562 69.3053572,36.8267055 67.5276254,36.2506214 C65.8593684,35.7091705 64.3261491,34.816314 63.0310098,33.6320569 L65.3838901,29.6518391 C66.6910458,30.5421508 67.9459152,31.2229776 69.2007847,31.7466906 C70.403368,32.2704033 71.6059512,32.4798885 72.7562482,32.4798885 C73.5928279,32.4798885 74.2725488,32.3227747 74.7431249,32.0085468 C75.2137009,31.7466906 75.4228459,31.2753489 75.4228459,30.6992648 C75.4228459,30.1755518 75.1614147,29.6518391 74.53398,29.3376112 C73.5513119,28.8658917 72.5155832,28.5142261 71.4490925,28.2901855 L67.7890565,27.0856459 C66.7956182,26.6666756 66.0113248,26.2477053 65.3838901,25.7763637 C64.7564553,25.3573933 64.2858793,24.7813092 64.0244481,24.205225 C63.7398624,23.5440587 63.5973455,22.830315 63.6061583,22.1103735 C63.5755508,20.0489068 64.4792085,18.0845869 66.063611,16.7685021 C66.7956182,16.1400466 67.7367703,15.668705 68.7824949,15.302106 C69.8282194,14.935507 70.9785165,14.7783931 72.1810997,14.7783931 C73.8019728,14.7783931 75.3182734,14.9878783 76.7300015,15.4068486 C78.1417297,15.8781902 79.5011716,16.6637595 80.8083274,17.8159279 L78.2463022,21.7437745 C77.2342235,21.0184947 76.1474315,20.403985 75.004556,19.9107794 C74.0111177,19.4918091 73.1222518,19.3346952 72.1810997,19.3346952 C71.5013787,19.3346952 70.873944,19.4394378 70.403368,19.7536655 C69.8805057,20.015522 69.6713608,20.4868636 69.6713608,21.115319 C69.6713608,21.7437745 69.9327919,22.1627448 70.4556542,22.4769725 C70.9785165,22.7912002 72.024241,23.105428 73.4359692,23.472027 C74.7466265,23.802691 76.0382768,24.204803 77.3051501,24.6765666 C78.3508746,25.0955369 79.1874543,25.5668785 79.8671753,26.0382201 C81.1526056,26.9863531 81.8631074,28.528278 81.7494795,30.1231805 C81.7494795,32.2704033 80.965186,33.9462845 79.344313,35.2031954 C77.7757261,36.4601065 75.684277,37.088562 72.9131069,37.088562 Z M98.7947898,35.5697946 C97.905924,35.9363936 96.8601995,36.3029925 95.7099025,36.6172204 C94.5596054,36.931448 93.4093084,37.1409331 92.206725,37.1409331 C91.3701454,37.1409331 90.6381382,37.0361907 89.906131,36.8267055 C89.1944263,36.6188813 88.534979,36.2618433 87.9715407,35.7792798 C87.4486783,35.3603095 87.0303885,34.731854 86.7166711,34.0510272 C86.4029538,33.3178291 86.1938088,32.4275174 86.1938088,31.3800914 L86.1938088,20.1202645 L83.4749251,20.1202645 L83.4749251,15.1973634 L86.2460951,15.1973634 L86.2460951,8.33672469 L92.7295874,8.33672469 L92.7295874,15.1449921 L97.1216305,15.1449921 L97.1216305,20.1202645 L92.7295874,20.1202645 L92.7295874,29.1281261 C92.7295874,29.8089529 92.8864461,30.3326656 93.2524496,30.6992648 C93.6184532,30.9611211 94.0890292,31.1182351 94.6118916,31.1182351 C95.134754,31.1182351 95.6576161,31.0658638 96.1281921,30.8563786 C96.6510545,30.6992648 97.1216305,30.5421508 97.4876341,30.3326656 L98.7425037,35.5697946 L98.7947898,35.5697946 Z M111.029767,37.088562 C109.365992,37.1176567 107.713055,36.8150153 106.167148,36.19825 C103.446225,35.1201312 101.315176,32.9284411 100.311091,30.1755518 C99.2838371,27.4410902 99.2838371,24.4258648 100.311091,21.6914032 C101.315176,18.938514 103.446225,16.7468239 106.167148,15.668705 C107.578876,15.0926209 109.199749,14.7783931 111.029767,14.7783931 C114.212605,14.6283289 117.303553,15.8705417 119.500136,18.1825269 C120.493575,19.1775813 121.225582,20.382121 121.748444,21.6914032 C122.818748,24.4359365 122.818748,27.4833897 121.748444,30.2279232 C120.737974,32.946857 118.631284,35.1140038 115.944673,36.19825 C114.382482,36.8218907 112.711079,37.1246574 111.029767,37.088562 Z M106.324007,25.9858488 C106.324007,27.66173 106.742296,29.0233836 107.631162,30.018438 C108.572315,31.0658638 109.722612,31.5895765 111.082053,31.5895765 C112.395396,31.6149923 113.647896,31.0359748 114.480658,30.018438 C114.898948,29.494725 115.212665,28.9710123 115.474097,28.2378141 C115.735528,27.5569874 115.8401,26.7714181 115.8401,25.9858488 C115.8401,24.2575963 115.369524,22.8959428 114.480658,21.9008883 C113.591792,20.8534626 112.441495,20.3297269 111.082053,20.3297269 C109.773507,20.3267828 108.530154,20.9015714 107.683449,21.9008883 C107.265159,22.4246012 106.899155,22.9483141 106.637724,23.6815121 C106.401978,24.4259172 106.295858,25.2053995 106.324007,25.9858488 Z M139.421189,20.8010913 C137.852602,20.8010913 136.388588,21.0629477 135.081432,21.5866606 C133.930721,21.9752826 132.950942,22.752974 132.310262,23.7862547 L132.310262,36.7219628 L125.774484,36.7219628 L125.774484,15.1973634 L131.7874,15.1973634 L131.7874,19.4918091 C132.519407,18.025413 133.460559,16.8732447 134.663142,16.0876753 C135.813439,15.2497347 137.016023,14.8307644 138.323178,14.7783931 L139.002899,14.7783931 L139.421189,14.8307644 L139.421189,20.74872 L139.421189,20.8010913 Z M142.296932,39.9166114 C143.20622,40.2332226 144.158207,40.4098033 145.120388,40.4403244 C145.904681,40.4403244 146.532116,40.1784679 147.002692,39.6547549 C147.420982,39.1310422 147.786986,38.0836164 148.152989,36.7219628 L139.996338,15.1973634 L146.741261,15.1973634 L151.708453,31.0658638 L156.04821,15.1973634 L162.165698,15.1973634 L153.95676,40.1784679 C152.669117,44.4215044 148.352245,46.9703268 144.022377,46.0440521 C143.499515,45.9393096 142.87208,45.7821958 142.296932,45.5203393 L142.296932,39.9166114 Z M177.642422,37.0888768 C176.021549,37.0888768 174.557535,36.7743342 173.354951,36.041136 C172.133117,35.3688863 171.119985,34.3722266 170.426922,33.1607153 L170.426922,36.7219628 L164.727723,36.7219628 L164.727723,6.76558605 L171.315788,6.76558605 L171.315788,18.7062398 C172.745953,16.1995254 175.441074,14.6886082 178.322143,14.7783931 C179.681585,14.7783931 180.936454,15.0402496 182.086751,15.668705 C183.237048,16.1924179 184.178201,17.0303585 185.067066,18.025413 C187.640848,21.6029896 188.341185,26.201555 186.949371,30.385037 C186.426508,31.7466906 185.694501,32.9512301 184.805635,33.9462845 C182.969765,35.9623126 180.366637,37.1042233 177.642422,37.0888768 Z M175.812404,31.5895988 C177.93482,31.5940555 179.82559,30.247321 180.518164,28.2378141 C181.28484,26.1280819 180.909166,23.7713492 179.524726,22.0056309 C178.707315,20.9274559 177.425216,20.3048211 176.073835,20.3297497 C175.080397,20.3297497 174.139245,20.6963487 173.250379,21.3771755 C172.413799,22.1103735 171.734078,23.0006854 171.263502,24.1004824 L171.263502,28.6044133 C172.107299,30.3862656 173.89579,31.5262481 175.86469,31.5372054 L175.812404,31.5895988 Z M190.870838,6.76558605 L197.406616,6.76558605 L197.406616,29.0233836 C197.406616,30.6992648 198.086337,31.4848341 199.498065,31.4848341 C200.244476,31.4870105 200.98021,31.3072714 201.641801,30.9611211 L202.530666,35.8316509 C200.699408,36.6349957 198.725918,37.0623904 196.726895,37.088562 C194.844591,37.088562 193.380576,36.564849 192.387138,35.6221657 C191.341414,34.57474 190.818551,33.2130866 190.818551,31.3277203 L190.818551,6.76558605 L190.870838,6.76558605 Z M214.870216,37.088562 C213.206441,37.1176567 211.553504,36.8150153 210.007597,36.19825 C207.270596,35.1267709 205.120814,32.9353803 204.099253,30.1755518 C202.587276,26.0594002 203.428464,21.4454016 206.295275,18.1301556 C207.341,17.0827298 208.491297,16.2971605 209.955311,15.668705 C211.367039,15.0926209 212.987912,14.7783931 214.81793,14.7783931 C218.000768,14.6283289 221.091716,15.8705417 223.288299,18.1825269 C224.334024,19.1775813 225.013745,20.382121 225.536607,21.6914032 C227.108274,25.8022039 226.261346,30.4476897 223.340585,33.7367994 C222.347147,34.7842251 221.144564,35.6221657 219.680549,36.19825 C218.134643,36.8150153 216.481705,37.1176567 214.81793,37.088562 L214.870216,37.088562 Z M210.11217,25.9858488 C210.11217,27.66173 210.530459,29.0233836 211.419325,30.018438 C212.360477,31.0658638 213.510774,31.5895765 214.870216,31.5895765 C216.181936,31.6072894 217.43126,31.0297402 218.268821,30.018438 C218.687111,29.494725 219.000828,28.9710123 219.262259,28.2378141 C219.523691,27.5569874 219.628263,26.7714181 219.628263,25.9858488 C219.628263,24.2575963 219.157687,22.8959428 218.268821,21.9008883 C217.379955,20.8534626 216.229658,20.3297269 214.870216,20.3297269 C213.561669,20.3267828 212.318317,20.9015714 211.471611,21.9008883 C211.053322,22.4246012 210.687318,22.9483141 210.425887,23.6815121 C210.164456,24.4147102 210.11217,25.1479082 210.11217,25.9858488 Z M244.045932,36.7219628 L238.451305,28.028329 L236.150711,30.4374083 L236.150711,36.7219628 L229.614933,36.7219628 L229.614933,6.76558605 L236.150711,6.76558605 L236.150711,24.1004824 L243.418497,15.1973634 L250.372565,15.1973634 L242.634204,24.4670814 L251,36.7219628 L244.045932,36.7219628 Z" id="Shape" fill="#1B243F"></path>
                <g id="storyblok-symbol">
                    <path d="M2.32662261,0 C1.03405449,0 0,1.0331384 0,2.27290448 L0,42.8752437 C0,44.1150097 1.03405449,44.8898635 2.27491989,44.8898635 L8.27243596,44.8898635 L8.27243596,53 L15.7176283,44.9415205 L42.9132615,44.9415205 C44.1541269,44.9415205 44.9296678,44.1666667 44.9296678,42.8752437 L44.9296678,2.3245614 C44.9296678,1.08479532 44.2058296,0 42.9132615,0 L2.32662261,0 Z" id="Shape-path-Copy" fill="#0AB3AF"></path>
                    <path d="M29.1016723,8.11483254 C30.1351059,8.11483254 31.0135245,8.32132604 31.8402713,8.78593643 C32.6153465,9.19892344 33.33875,9.76678059 33.9071385,10.4378845 C35.0647615,11.8482391 35.6869248,13.6215753 35.6639755,15.445352 C35.6639755,16.7875598 35.3022738,18.0781442 34.630542,19.3171053 C33.9341248,20.5632996 32.8438147,21.5436614 31.5302412,22.1047676 C33.183735,22.569378 34.4755269,23.395352 35.4572888,24.5826897 C36.387379,25.8216507 36.8524241,27.4219754 36.8524241,29.4352871 C36.8524241,30.7258715 36.6168825,31.8756998 36.1290206,32.7391832 C35.6123039,33.668404 34.8372287,34.4427546 33.9071385,35.0106118 C32.9253766,35.6300923 31.8402713,36.1979494 30.600151,36.4560663 C29.3600307,36.7658066 28.0165671,37.0239234 26.6214318,37.0239234 L8.32965751,37.0239234 L8.32965751,8.11483254 L29.1016723,8.11483254 Z M26.1340815,24.271851 L15.77813,24.271851 L15.77813,29.1552028 L25.8851404,29.1552028 C26.4825991,29.1552028 27.0302696,28.9110352 27.4783637,28.5203671 C27.8766695,28.1296989 28.1256107,27.5436967 28.1256107,26.811194 C28.140051,26.1827412 27.948041,25.5663945 27.5779401,25.0531873 C27.1796343,24.5648522 26.7315403,24.271851 26.1340815,24.271851 Z M25.2876816,14.5051475 L15.77813,14.5051475 L15.77813,18.9001641 L25.0885287,18.9001641 C25.586411,18.9001641 26.0842933,18.6559965 26.4825991,18.3629954 C26.9306932,18.0699943 27.1298461,17.4351586 27.1298461,16.6049888 C27.1298461,15.872486 26.9306932,15.3353173 26.5821756,14.9934827 C26.233658,14.7004816 25.7855639,14.5051475 25.2876816,14.5051475 Z" id="Combined-Shape-Copy-3" fill="#FFFFFF"></path>
                </g>
            </g>
        </g>
    </g>
</svg>
